X:163
T:1st August
M:4/4
L:1/8
F:http://blackrosetheband.googlepages.com/ABCTUNES.ABC May 2009
C:Donogh Hennessy
K:EDor
"Em"DE2E GDEG|"G"ABBB BAGB|"D"BAAB AGEG|"A"(3Bce dB AGEA|
"Em"GEEE GDEG|"G"ABBB BAGB|"A"BAAB AGED|"Am"EGA EGA EG|
"Em"DE2E GDEG|"G"ABBB BAGB|"D"BAAB AGEG|"A"(3Bce dB AGEA|
"Em"GEEE GDEG|"G"ABBB BAGB|"D"BAAB AGED|"A"EGAG ABde|
|:"C"fgag "D"fedB|"Em"e3d BAGD|"C"EGGG "D"AAGA|"G"BBBd BAGD|
"Em"EGGG "D"AGGA|"C"(3Bce dB AGEG|"D"DEGB A^GAB|1 "G"GzGF GA (3ABd:|2 "G
"G2 GF "D"GBFG||
T:2nd Ending (Last Time)
"C"=cBAG "D"ABFG
